public/images/icons/dribbble.svg

<?xml version="1.0" encoding="UTF-8"?>
<svg width="24px" height="25px" viewBox="0 0 24 25" version="1.1" xmlns="http://www.w3.org/2000/svg" xmlns:xlink="http://www.w3.org/1999/xlink">
    <!-- Generator: Sketch 48.2 (47327) - http://www.bohemiancoding.com/sketch -->
    <title>Shape</title>
    <desc>Created with Sketch.</desc>
    <defs></defs>
    <g id="project" stroke="none" stroke-width="1" fill="none" fill-rule="evenodd" transform="translate(-1321.000000, -2196.000000)">
        <path d="M1333,2196.29618 C1326.372,2196.29618 1321,2201.66918 1321,2208.29618 C1321,2214.92318 1326.372,2220.29618 1333,2220.29618 C1339.628,2220.29618 1345,2214.92318 1345,2208.29618 C1345,2201.66918 1339.628,2196.29618 1333,2196.29618 Z M1342.885,2207.73718 C1340.31,2207.31518 1337.942,2207.29218 1335.782,2207.66418 C1335.538,2207.10118 1335.285,2206.53918 1335.015,2205.98418 C1337.325,2204.98418 1339.18,2203.62618 1340.563,2201.90218 C1341.913,2203.49618 1342.76,2205.52118 1342.885,2207.73718 Z M1339.043,2200.45518 C1337.838,2202.00918 1336.175,2203.23818 1334.057,2204.13518 C1333.041,2202.27418 1331.879,2200.45918 1330.569,2198.69718 C1331.348,2198.50018 1332.16,2198.38318 1333,2198.38318 C1335.275,2198.38318 1337.368,2199.16218 1339.043,2200.45518 Z M1328.527,2199.46218 C1329.858,2201.20418 1331.038,2203.00018 1332.064,2204.84318 C1329.634,2205.55818 1326.733,2205.92518 1323.38,2205.94818 C1324.072,2203.11318 1325.981,2200.75518 1328.527,2199.46218 Z M1323.087,2208.29618 L1323.1,2208.04018 C1326.949,2208.03518 1330.269,2207.59218 1333.05,2206.71818 C1333.283,2207.19318 1333.506,2207.67018 1333.72,2208.15018 C1330.34,2209.20718 1327.555,2211.37218 1325.383,2214.63018 C1323.951,2212.91118 1323.087,2210.70318 1323.087,2208.29618 Z M1326.916,2216.10618 C1328.885,2213.01818 1331.398,2211.00818 1334.514,2210.07918 C1335.442,2212.49918 1336.123,2214.98918 1336.557,2217.53918 C1333.208,2218.83018 1329.604,2218.20518 1326.916,2216.10618 Z M1338.502,2216.53618 C1338.064,2214.18318 1337.422,2211.88318 1336.582,2209.63918 C1338.458,2209.37418 1340.522,2209.44318 1342.781,2209.83518 C1342.344,2212.62118 1340.753,2215.02718 1338.502,2216.53618 Z" id="Shape" fill="#77838A" fill-rule="nonzero"></path>
    </g>
</svg>

<?xml version="1.0" encoding="utf-8"?>
<!-- Generator: Adobe Illustrator 21.1.0, SVG Export Plug-In . SVG Version: 6.00 Build 0)  -->
<svg version="1.1" id="Layer_1" xmlns="http://www.w3.org/2000/svg" xmlns:xlink="http://www.w3.org/1999/xlink" x="0px" y="0px"
	 viewBox="0 0 24 25" style="enable-background:new 0 0 24 25;" xml:space="preserve">
<style type="text/css">
	.st0{fill:#272A2C;}
</style>
<title>Shape</title>
<desc>Created with Sketch.</desc>
<g id="project" transform="translate(-1321.000000, -2196.000000)">
	<path id="Shape" class="st0" d="M1333,2196.3c-6.6,0-12,5.4-12,12s5.4,12,12,12s12-5.4,12-12S1339.6,2196.3,1333,2196.3z
		 M1342.9,2207.7c-2.6-0.4-4.9-0.4-7.1-0.1c-0.2-0.6-0.5-1.1-0.8-1.7c2.3-1,4.2-2.4,5.5-4.1
		C1341.9,2203.5,1342.8,2205.5,1342.9,2207.7z M1339,2200.5c-1.2,1.6-2.9,2.8-5,3.7c-1-1.9-2.2-3.7-3.5-5.4c0.8-0.2,1.6-0.3,2.4-0.3
		C1335.3,2198.4,1337.4,2199.2,1339,2200.5z M1328.5,2199.5c1.3,1.7,2.5,3.5,3.5,5.4c-2.4,0.7-5.3,1.1-8.7,1.1
		C1324.1,2203.1,1326,2200.8,1328.5,2199.5z M1323.1,2208.3l0-0.3c3.8,0,7.2-0.4,10-1.3c0.2,0.5,0.5,1,0.7,1.4
		c-3.4,1.1-6.2,3.2-8.3,6.5C1324,2212.9,1323.1,2210.7,1323.1,2208.3z M1326.9,2216.1c2-3.1,4.5-5.1,7.6-6c0.9,2.4,1.6,4.9,2,7.5
		C1333.2,2218.8,1329.6,2218.2,1326.9,2216.1z M1338.5,2216.5c-0.4-2.4-1.1-4.7-1.9-6.9c1.9-0.3,3.9-0.2,6.2,0.2
		C1342.3,2212.6,1340.8,2215,1338.5,2216.5z"/>
</g>
</svg>
